icons/people-white.svg

<svg fill="none" height="38" viewBox="0 0 53 38" width="53" xmlns="http://www.w3.org/2000/svg"><path d="m0 38v-6.65c0-1.3458.346354-2.5828 1.03906-3.7109.69271-1.1282 1.61302-1.9891 2.76094-2.5829 2.45417-1.227 4.94792-2.1473 7.4812-2.7609 2.5334-.6135 5.1063-.9203 7.7188-.9203s5.1854.3068 7.7188.9203c2.5333.6136 5.027 1.5339 7.4812 2.7609 1.1479.5938 2.0682 1.4547 2.7609 2.5829.6927 1.1281 1.0391 2.3651 1.0391 3.7109v6.65zm42.75 0v-7.125c0-1.7417-.4849-3.4141-1.4547-5.0172s-2.3453-2.9786-4.1265-4.1266c2.0187.2375 3.9187.6433 5.6999 1.2172 1.7813.574 3.4438 1.2766 4.9876 2.1078 1.4249.7917 2.5135 1.6724 3.2656 2.6422s1.1281 2.0287 1.1281 3.1766v7.125zm-23.75-19c-2.6125 0-4.849-.9302-6.7094-2.7906s-2.7906-4.0969-2.7906-6.7094.9302-4.84896 2.7906-6.70938c1.8604-1.860412 4.0969-2.79062 6.7094-2.79062s4.849.930208 6.7094 2.79062c1.8604 1.86042 2.7906 4.09688 2.7906 6.70938s-.9302 4.849-2.7906 6.7094-4.0969 2.7906-6.7094 2.7906zm23.75-9.5c0 2.6125-.9302 4.849-2.7906 6.7094s-4.0969 2.7906-6.7094 2.7906c-.4354 0-.9896-.0495-1.6625-.1484-.6729-.099-1.2271-.2079-1.6625-.3266 1.0687-1.2667 1.8901-2.6719 2.4641-4.2156.5739-1.5438.8609-3.1469.8609-4.8094s-.287-3.26563-.8609-4.80938c-.574-1.54375-1.3954-2.94895-2.4641-4.21562.5542-.197917 1.1083-.326563 1.6625-.3859375.5542-.059375 1.1083-.0890625 1.6625-.0890625 2.6125 0 4.849.930208 6.7094 2.79062 1.8604 1.86042 2.7906 4.09688 2.7906 6.70938zm-38 23.75h28.5v-1.9c0-.4354-.1089-.8313-.3266-1.1875-.2177-.3563-.5046-.6333-.8609-.8313-2.1375-1.0687-4.2948-1.8703-6.4719-2.4046-2.1771-.5344-4.3739-.8016-6.5906-.8016s-4.4135.2672-6.5906.8016c-2.1771.5343-4.3344 1.3359-6.4719 2.4046-.35625.198-.64323.475-.86094.8313-.21771.3562-.32656.7521-.32656 1.1875zm14.25-19c1.3062 0 2.4245-.4651 3.3547-1.3953s1.3953-2.0485 1.3953-3.3547c0-1.30625-.4651-2.42448-1.3953-3.35469s-2.0485-1.39531-3.3547-1.39531-2.4245.4651-3.3547 1.39531-1.3953 2.04844-1.3953 3.35469c0 1.3062.4651 2.4245 1.3953 3.3547s2.0485 1.3953 3.3547 1.3953z" fill="#fff"/></svg>

<svg width="53" height="38" viewBox="0 0 53 38" fill="none" xmlns="http://www.w3.org/2000/svg">
<path d="M0 38V31.35C0 30.0042 0.346354 28.7672 1.03906 27.6391C1.73177 26.5109 2.65208 25.65 3.8 25.0562C6.25417 23.8292 8.74792 22.9089 11.2812 22.2953C13.8146 21.6818 16.3875 21.375 19 21.375C21.6125 21.375 24.1854 21.6818 26.7188 22.2953C29.2521 22.9089 31.7458 23.8292 34.2 25.0562C35.3479 25.65 36.2682 26.5109 36.9609 27.6391C37.6536 28.7672 38 30.0042 38 31.35V38H0ZM42.75 38V30.875C42.75 29.1333 42.2651 27.4609 41.2953 25.8578C40.3255 24.2547 38.95 22.8792 37.1688 21.7312C39.1875 21.9687 41.0875 22.3745 42.8687 22.9484C44.65 23.5224 46.3125 24.225 47.8563 25.0562C49.2812 25.8479 50.3698 26.7286 51.1219 27.6984C51.874 28.6682 52.25 29.7271 52.25 30.875V38H42.75ZM19 19C16.3875 19 14.151 18.0698 12.2906 16.2094C10.4302 14.349 9.5 12.1125 9.5 9.5C9.5 6.8875 10.4302 4.65104 12.2906 2.79062C14.151 0.930208 16.3875 0 19 0C21.6125 0 23.849 0.930208 25.7094 2.79062C27.5698 4.65104 28.5 6.8875 28.5 9.5C28.5 12.1125 27.5698 14.349 25.7094 16.2094C23.849 18.0698 21.6125 19 19 19ZM42.75 9.5C42.75 12.1125 41.8198 14.349 39.9594 16.2094C38.099 18.0698 35.8625 19 33.25 19C32.8146 19 32.2604 18.9505 31.5875 18.8516C30.9146 18.7526 30.3604 18.6437 29.925 18.525C30.9937 17.2583 31.8151 15.8531 32.3891 14.3094C32.963 12.7656 33.25 11.1625 33.25 9.5C33.25 7.8375 32.963 6.23437 32.3891 4.69062C31.8151 3.14687 30.9937 1.74167 29.925 0.475C30.4792 0.277083 31.0333 0.148437 31.5875 0.0890625C32.1417 0.0296875 32.6958 0 33.25 0C35.8625 0 38.099 0.930208 39.9594 2.79062C41.8198 4.65104 42.75 6.8875 42.75 9.5ZM4.75 33.25H33.25V31.35C33.25 30.9146 33.1411 30.5187 32.9234 30.1625C32.7057 29.8062 32.4188 29.5292 32.0625 29.3312C29.925 28.2625 27.7677 27.4609 25.5906 26.9266C23.4135 26.3922 21.2167 26.125 19 26.125C16.7833 26.125 14.5865 26.3922 12.4094 26.9266C10.2323 27.4609 8.075 28.2625 5.9375 29.3312C5.58125 29.5292 5.29427 29.8062 5.07656 30.1625C4.85885 30.5187 4.75 30.9146 4.75 31.35V33.25ZM19 14.25C20.3062 14.25 21.4245 13.7849 22.3547 12.8547C23.2849 11.9245 23.75 10.8062 23.75 9.5C23.75 8.19375 23.2849 7.07552 22.3547 6.14531C21.4245 5.2151 20.3062 4.75 19 4.75C17.6938 4.75 16.5755 5.2151 15.6453 6.14531C14.7151 7.07552 14.25 8.19375 14.25 9.5C14.25 10.8062 14.7151 11.9245 15.6453 12.8547C16.5755 13.7849 17.6938 14.25 19 14.25Z" fill="white"/>
</svg>
